X: 35731
T: Saint Ruth's Bush
R: reel
M: 4/4
K: Adorian
|:gf|eAAB cBcA|GEED EDEG|AGAB cBcd|eaag (3efg ag|
eAAB cBcA|GEED EDEG|AGAB cege|dBGB A2:|
|:Bd|eaag abag|eaag bgag|eggf g2fg|eg fg ed Bd|
eaag abag|eaag bgag|edef gage|dBGB A2:|

